X:160
T:Steirer
C:traditionell
R:Steirer
A:Bad Ischl, Salzkammergut
B:"Pfeifermusik aus Bad Ischl", Lois Blamberger, 3. Auflage, Bad Ischl 1990
S:im buch mit der Angabe: aus der Sammlung vom Blamberger Lois
N:im buch in D, nr. 5/3
Z:abc transcription Simon Wascher
M:3/4
L:1/8
K:D
V:1
d2 (AdFd) | c2 Ac E2 | c2 (AcEc) | d2 (Ad) F2 |\
d2 (AdFd) | c2 Ac E2 | c2 (AcEc) | d4 z2 :|
V:2
f2 (dfAf) | ""g2 (ce) G2 | ""g2 (ceGe) | f2 (df) A2 |\
f2 (dfAf) | g2 ce A2 | g2 (ceGa) | f4 z2 :|
